src/basic/700/u1F5D9-close.svg

<svg width="17" height="20" viewBox="0 0 17 20" fill="none" xmlns="http://www.w3.org/2000/svg">
<path fill-rule="evenodd" clip-rule="evenodd" d="M8.5,10.7071l-6.83395,6.834l-0.70711,-0.7071l6.83395,-6.834l-6.83395,-6.83393l0.70711,-0.70711l6.83396,6.83395l6.834,-6.83395l0.7071,0.7071l-6.83399,6.83394l6.83399,6.834l-0.7072,0.7071z" fill="black"/>
</svg>

<svg width="17" height="20" viewBox="0 0 17 20" fill="none" xmlns="http://www.w3.org/2000/svg">
<path fill-rule="evenodd" clip-rule="evenodd" d="M8.5 10.7071L1.66605 17.5411L0.958944 16.834L7.79289 10L0.958935 3.16607L1.66604 2.45896L8.5 9.29291L15.334 2.45896L16.0411 3.16606L9.20711 10L16.0411 16.834L15.3339 17.5411L8.5 10.7071Z" fill="black"/>
</svg>
